static/assets/images/networks/syscoin.svg

<svg width="256" height="256" viewBox="0 0 256 256" fill="none" xmlns="http://www.w3.org/2000/svg">
<path fill-rule="evenodd" clip-rule="evenodd" d="M256 128C256 198.692 198.692 256 128 256C57.3075 256 0 198.692 0 128C0 57.3075 57.3075 0 128 0C198.692 0 256 57.3075 256 128Z" fill="white"/>
<path d="M114.141 139.096C121.797 143.067 135.021 152.511 130.042 162.922C125.384 172.635 109.323 172.742 100.596 171.239C82.0728 168.02 62.7995 159.702 50.0042 145.643C44.4456 139.713 40.4178 132.511 38.2716 124.663C36.1254 116.816 35.926 108.562 37.6908 100.62C46.4708 64.2906 86.784 44.8112 120.512 41.1622C150.428 37.9662 180.426 46.4197 204.297 64.7736C204.311 64.7806 204.324 64.7904 204.334 64.8023C204.344 64.8142 204.352 64.828 204.357 64.843C204.362 64.8579 204.364 64.8737 204.363 64.8894C204.362 64.9051 204.358 64.9205 204.351 64.9346C204.344 64.9487 204.334 64.9612 204.322 64.9715C204.31 64.9819 204.296 64.9898 204.282 64.9947C204.251 65.0048 204.219 65.0025 204.19 64.9882C203.655 64.7736 202.905 64.7199 202.316 64.5589C178.921 56.9926 153.384 53.0752 129.239 56.5096C113.338 58.8171 95.6176 65.2565 86.3557 79.2624C71.6331 101.532 87.587 123.695 107.663 135.715L114.141 139.096Z" fill="#2D5DF8"/>
<path d="M154.585 84.6696C171.398 87.3485 186.713 93.7777 199.725 104.707C202.295 106.85 204.544 109.529 206.74 112.101C215.843 122.709 219.877 134.835 218.841 148.48C217.074 170.821 199.457 189.52 180.823 199.913C139.056 222.952 89.2567 219.362 51.1844 190.805C51.1588 190.78 51.1424 190.747 51.1379 190.711C51.1333 190.675 51.141 190.639 51.1595 190.608C51.178 190.577 51.2064 190.554 51.24 190.541C51.2737 190.528 51.3107 190.527 51.3451 190.538C71.7635 197.391 93.2139 200.653 114.745 200.181C130.006 199.538 146.66 195.681 159.19 186.626C172.148 177.25 178.574 161.981 172.469 146.551C168.186 135.568 158.333 126.46 148.212 120.62C139.966 115.798 126.633 110.279 124.705 99.564C123.099 90.2416 131.934 85.634 139.752 84.5089C144.607 83.7945 149.551 83.8481 154.585 84.6696Z" fill="#2D5DF8"/>
</svg>

<svg xmlns="http://www.w3.org/2000/svg" fill="none" viewBox="0 0 256 256"><path fill="#fff" fill-rule="evenodd" d="M256 128c0 70.692-57.308 128-128 128S0 198.692 0 128 57.308 0 128 0s128 57.308 128 128" clip-rule="evenodd"/><path fill="#2D5DF8" d="M114.141 139.096c7.656 3.971 20.88 13.415 15.901 23.826-4.658 9.713-20.719 9.82-29.446 8.317-18.523-3.219-37.796-11.537-50.592-25.596a49.94 49.94 0 0 1-11.732-20.98 50 50 0 0 1-.581-24.043c8.78-36.33 49.093-55.809 82.821-59.458a117.05 117.05 0 0 1 83.822 23.64.13.13 0 0 1 .029.087.12.12 0 0 1-.081.106.12.12 0 0 1-.092-.007c-.535-.214-1.285-.268-1.874-.43-23.395-7.565-48.932-11.483-73.077-8.048-15.901 2.307-33.621 8.747-42.883 22.752-14.723 22.27 1.231 44.433 21.307 56.453z"/><path fill="#2D5DF8" d="M154.585 84.67c16.813 2.678 32.128 9.108 45.14 20.037 2.57 2.143 4.819 4.822 7.015 7.394q13.655 15.912 12.101 36.379c-1.767 22.341-19.384 41.04-38.018 51.433-41.767 23.039-91.566 19.449-129.639-9.108a.16.16 0 0 1 .16-.267 186.4 186.4 0 0 0 63.401 9.643c15.261-.643 31.915-4.5 44.445-13.555 12.958-9.376 19.384-24.645 13.279-40.075-4.283-10.983-14.136-20.091-24.257-25.931-8.246-4.822-21.579-10.341-23.507-21.056-1.606-9.322 7.229-13.93 15.047-15.055q7.282-1.071 14.833.16"/></svg>
